artillery/0.3.1/images/artillery-logo.svg

<svg width="117" height="33" viewBox="0 0 117 33" fill="none" xmlns="http://www.w3.org/2000/svg" aria-hidden="true" aria-label="Artillery"><path d="M0 0H32V32.5872H0V0Z" fill="#161616"></path><path d="M18.9052 18.0432L14.7875 14.0878L11.5149 15.435L9.95133 13.9331L24.3428 8.10542L19.3017 22.915L17.7132 21.3891L18.9052 18.0432ZM19.5988 16.0869L21.2539 11.3895L16.6772 13.2804L19.5988 16.0869Z" fill="white"></path><path d="M14.5215 14.5037L18.6706 18.4893L22.2161 14.6614L23.6676 16.0557L14.6043 25.8409L13.1527 24.4466L17.385 19.8772L13.236 15.8917L9.00368 20.4611L7.55213 19.0667L16.6155 9.28149L18.067 10.6758L14.5215 14.5037Z" fill="white"></path><path d="M44.556 23.4667L45.7076 19.9288H51.306L52.4576 23.4667H55.9727L50.6242 7.95155H46.397L41.0409 23.4667H44.556ZM46.5409 17.3682L48.45 11.497H48.5712L50.4803 17.3682H46.5409Z" fill="white"></path><path d="M56.7129 23.4667H59.9401V16.8834C59.9401 15.4515 60.9856 14.4667 62.4098 14.4667C62.8568 14.4667 63.4704 14.5425 63.7735 14.6409V11.7773C63.4856 11.7091 63.0841 11.6637 62.7583 11.6637C61.4553 11.6637 60.3871 12.4212 59.9629 13.8606H59.8417V11.8303H56.7129V23.4667Z" fill="white"></path><path d="M71.1481 11.8303H68.9587V9.04246H65.7314V11.8303H64.1405V14.2546H65.7314V20.3152C65.7163 22.5955 67.2693 23.7243 69.6102 23.6258C70.4436 23.5955 71.0345 23.4288 71.3602 23.3228L70.8526 20.9212C70.6936 20.9516 70.3526 21.0273 70.0496 21.0273C69.4057 21.0273 68.9587 20.7849 68.9587 19.8909V14.2546H71.1481V11.8303Z" fill="white"></path><path d="M72.1837 23.4667H75.411V11.8303H72.1837V23.4667ZM73.8049 10.3303C74.767 10.3303 75.5549 9.59549 75.5549 8.69397C75.5549 7.80004 74.767 7.06519 73.8049 7.06519C72.8504 7.06519 72.0625 7.80004 72.0625 8.69397C72.0625 9.59549 72.8504 10.3303 73.8049 10.3303Z" fill="white"></path><path d="M80.1568 7.95155H76.9295V23.4667H80.1568V7.95155Z" fill="white"></path><path d="M84.9026 7.95155H81.6754V23.4667H84.9026V7.95155Z" fill="white"></path><path d="M91.7242 23.694C94.603 23.694 96.5424 22.2925 96.997 20.1334L94.0121 19.9364C93.6864 20.8228 92.853 21.2849 91.7773 21.2849C90.1636 21.2849 89.1409 20.2167 89.1409 18.4819V18.4743H97.0651V17.5879C97.0651 13.6334 94.6712 11.6788 91.5954 11.6788C88.1712 11.6788 85.9515 14.1106 85.9515 17.7016C85.9515 21.3909 88.1409 23.694 91.7242 23.694ZM89.1409 16.4743C89.2091 15.1485 90.2167 14.0879 91.6485 14.0879C93.05 14.0879 94.0197 15.0879 94.0273 16.4743H89.1409Z" fill="white"></path><path d="M98.1045 23.4667H101.332V16.8834C101.332 15.4515 102.377 14.4667 103.802 14.4667C104.248 14.4667 104.862 14.5425 105.165 14.6409V11.7773C104.877 11.7091 104.476 11.6637 104.15 11.6637C102.847 11.6637 101.779 12.4212 101.355 13.8606H101.233V11.8303H98.1045V23.4667Z" fill="white"></path><path d="M108.114 27.8303C110.515 27.8303 111.788 26.6031 112.447 24.7243L116.97 11.8455L113.553 11.8303L111.121 20.3758H111L108.591 11.8303H105.197L109.371 23.8L109.182 24.2925C108.758 25.3834 107.947 25.4364 106.811 25.0879L106.083 27.497C106.545 27.694 107.295 27.8303 108.114 27.8303Z" fill="white"></path></svg>

<svg width="33" height="33" fill="none" xmlns="http://www.w3.org/2000/svg" aria-hidden="true" aria-label="Artillery"><path d="M0 0h32v32.587H0V0Z" fill="#161616"/><path d="m18.905 18.043-4.118-3.955-3.272 1.347-1.564-1.502 14.392-5.828-5.041 14.81-1.589-1.526 1.192-3.346Zm.694-1.956 1.655-4.697-4.577 1.89 2.922 2.807Z" fill="#fff"/><path d="m14.521 14.504 4.15 3.985 3.545-3.828 1.452 1.395-9.064 9.785-1.451-1.394 4.232-4.57-4.149-3.985-4.232 4.57-1.452-1.395 9.064-9.786 1.451 1.395-3.546 3.828Z" fill="#fff"/></svg>
